src/main/resources/icons/AllIcons/xml/browsers/opera.svg

<svg xmlns="http://www.w3.org/2000/svg" width="16" height="16" viewBox="0 0 16 16">
  <defs>
    <linearGradient id="opera-a" x1="49.994%" x2="49.994%" y1="1.631%" y2="98.543%">
      <stop offset="0%" stop-color="#FF1B2D"/>
      <stop offset="30%" stop-color="#FF1B2D"/>
      <stop offset="61%" stop-color="#FF1B2D"/>
      <stop offset="100%" stop-color="#A70014"/>
    </linearGradient>
    <linearGradient id="opera-b" x1="50.005%" x2="50.005%" y1=".848%" y2="99.602%">
      <stop offset="0%" stop-color="#9C0000"/>
      <stop offset="70%" stop-color="#FF4B4B"/>
      <stop offset="100%" stop-color="#FF4B4B"/>
    </linearGradient>
  </defs>
  <g fill="none" transform="translate(1 1)">
    <path fill="url(#opera-a)" d="M6.947595,0 C3.11009975,0 0,3.13432836 0,7 C0,10.7542289 2.93447384,13.8175124 6.61846928,13.9916418 C6.72909977,13.9972139 6.83834738,14 6.94897788,14 C8.72874594,14 10.3508656,13.3257711 11.5802469,12.2183085 C10.7657299,12.7629851 9.81292478,13.0750249 8.79512424,13.0750249 C7.13981548,13.0750249 5.65874975,12.2475622 4.66169242,10.9436816 C3.89281049,10.0312438 3.39497327,8.68 3.36178412,7.16437811 C3.36178412,7.160199 3.36178412,6.83840796 3.36178412,6.83422886 C3.39497327,5.32 3.89281049,3.96875622 4.66030954,3.05492537 C5.65736686,1.75104478 7.13981548,0.924975124 8.79512424,0.924975124 C9.81292478,0.924975124 10.7657299,1.23840796 11.5802469,1.78308458 C10.3563971,0.679800995 8.74395763,0.00696517413 6.97386974,0 C6.96557245,0 6.95589228,0 6.947595,0 Z"/>
    <path fill="url(#opera-b)" d="M4.66666667,3.00988952 C5.30218471,2.24647785 6.12065491,1.78618552 7.01615761,1.78618552 C9.02863141,1.78618552 10.6600695,4.11431045 10.6600695,6.98412087 C10.6600695,9.85533461 9.02863141,12.1820562 7.01615761,12.1820562 C6.12065491,12.1820562 5.30218471,11.7217639 4.66804225,10.9583522 C5.65983555,12.2718693 7.13308192,13.1054475 8.77965139,13.1054475 C9.7920784,13.1054475 10.7398531,12.7896982 11.5500699,12.2423994 C12.9641663,10.9499322 13.8541667,9.07367965 13.8541667,6.98412087 C13.8541667,4.89596541 12.9641663,3.0183095 11.5486943,1.72724565 C10.7384776,1.17854351 9.7920784,0.864197531 8.77965139,0.864197531 C7.13308192,0.864197531 5.65983555,1.69777571 4.66804225,3.01129285"/>
  </g>
</svg>

<svg xmlns="http://www.w3.org/2000/svg" width="16" height="16" viewBox="0 0 16 16"><rect id="frame" width="16" height="16" fill="none"/><defs><linearGradient id="a" x1="49.994%" x2="49.994%" y1="1.631%" y2="98.543%"><stop offset="0%" stop-color="#FF1B2D"/><stop offset="30%" stop-color="#FF1B2D"/><stop offset="61%" stop-color="#FF1B2D"/><stop offset="100%" stop-color="#A70014"/></linearGradient><linearGradient id="b" x1="50.005%" x2="50.005%" y1=".848%" y2="99.602%"><stop offset="0%" stop-color="#9C0000"/><stop offset="70%" stop-color="#FF4B4B"/><stop offset="100%" stop-color="#FF4B4B"/></linearGradient></defs><g fill="none"><path fill="url(#a)" d="M6.948 0C3.11 0 0 3.134 0 7c0 3.754 2.934 6.818 6.618 6.992a6.895 6.895 0 0 0 4.962-1.773 4.985 4.985 0 0 1-2.785.856c-1.655 0-3.136-.827-4.133-2.131-.77-.913-1.267-2.264-1.3-3.78v-.33c.033-1.514.53-2.865 1.298-3.78C5.657 1.752 7.14.926 8.795.926c1.018 0 1.97.313 2.785.858A6.895 6.895 0 0 0 6.974 0h-.026z" transform="translate(1 1)"/><path fill="url(#b)" d="M4.667 3.01c.635-.764 1.454-1.224 2.35-1.224 2.012 0 3.643 2.328 3.643 5.198 0 2.871-1.631 5.198-3.644 5.198-.895 0-1.714-.46-2.348-1.224.992 1.314 2.465 2.147 4.112 2.147 1.012 0 1.96-.315 2.77-.863a7.102 7.102 0 0 0 2.304-5.258c0-2.088-.89-3.966-2.305-5.257a4.91 4.91 0 0 0-2.77-.863c-1.646 0-3.12.834-4.111 2.147" transform="translate(1 1)"/></g></svg>
